src/photo/menu.svg

<svg width="32" height="32" viewBox="0 0 32 32" fill="none" xmlns="http://www.w3.org/2000/svg">
<path fill-rule="evenodd" clip-rule="evenodd" d="M26 13C26.5523 13 27 12.5523 27 12C27 11.4477 26.5523 11 26 11V12L25.9999 11H25.9997H25.999H25.9959H25.9837H25.9356H25.7497H25.0564H22.6851H16.4167H9.73154L7.07381 11L6.28607 11L6.07372 11L6.01871 11L6.00471 11L6.00118 11L6.0003 11L6.00007 11L6 12L6 11C5.44772 11 5 11.4477 5 12C5 12.5523 5.44772 13 6 13L6 12L6.00007 13H6.0003H6.00118H6.00471H6.01871H6.07372L6.28607 13L7.07381 13L9.73154 13L16.4167 13L22.6851 13L25.0564 13L25.7497 13H25.9356H25.9837H25.9959H25.999H25.9997H25.9999L26 12V13ZM6 19C5.44772 19 5 19.4477 5 20C5 20.5523 5.44772 21 6 21V20L6.00006 21H6.00026H6.00058H6.00103H6.00161H6.00231H6.00315H6.00411H6.00519H6.00641H6.00774H6.00921H6.0108H6.01251H6.01435H6.01631H6.0184H6.02061H6.02295H6.0254H6.02798H6.03069H6.03351H6.03645H6.03952H6.04271H6.04602H6.04945H6.053H6.05667H6.06045H6.06436H6.06839H6.07253H6.07679H6.08117H6.08567H6.09028H6.09501H6.09986H6.10482H6.1099H6.1151H6.12041H6.12583H6.13137H6.13702H6.14279H6.14867H6.15466H6.16077H6.16699H6.17332H6.17976H6.18631H6.19298H6.19976H6.20664H6.21364H6.22074H6.22796H6.23528H6.24272H6.25026H6.25791H6.26567H6.27353H6.28151H6.28959H6.29777H6.30607H6.31446H6.32297H6.33158H6.34029H6.34911H6.35803H6.36706H6.37619H6.38542H6.39476H6.4042H6.41374H6.42338H6.43313H6.44297H6.45292H6.46297H6.47311H6.48336H6.49371H6.50416H6.5147H6.52535H6.53609H6.54693H6.55787H6.5689H6.58004H6.59127H6.60259H6.61401H6.62553H6.63714H6.64885H6.66065H6.67255H6.68454H6.69663H6.7088H6.72107H6.73344H6.74589H6.75844H6.77108H6.78381H6.79664H6.80955H6.82255H6.83565H6.84883H6.8621H6.87546H6.88892H6.90245H6.91608H6.9298H6.9436H6.95749H6.97147H6.98553H6.99968H7.01391H7.02823H7.04264H7.05713H7.07171H7.08636H7.10111H7.11593H7.13084H7.14584H7.16091H7.17607H7.19131H7.20663H7.22203H7.23751H7.25308H7.26872H7.28445H7.30025H7.31613H7.33209H7.34813H7.36425H7.38045H7.39672H7.41307H7.4295H7.446H7.46259H7.47924H7.49597H7.51278H7.52967H7.54662H7.56365H7.58076H7.59794H7.61519H7.63252H7.64992H7.66739H7.68493H7.70255H7.72023H7.73799H7.75582H7.77371H7.79168H7.80972H7.82783H7.846H7.86425H7.88256H7.90094H7.91939H7.93791H7.95649H7.97514H7.99386H8.01264H8.03149H8.05041H8.06938H8.08843H8.10754H8.12671H8.14595H8.16525H8.18461H8.20404H8.22352H8.24307H8.26269H8.28236H8.3021H8.32189H8.34175H8.36166H8.38164H8.40168H8.42177H8.44193H8.46214H8.48241H8.50274H8.52313H8.54357H8.56407H8.58463H8.60524H8.62591H8.64663H8.66741H8.68825H8.70914H8.73008H8.75108H8.77213H8.79324H8.81439H8.8356H8.85687H8.87818H8.89955H8.92096H8.94243H8.96395H8.98552H9.00714H9.02881H9.05053H9.0723H9.09411H9.11598H9.13789H9.15985H9.18186H9.20391H9.22601H9.24816H9.27035H9.29259H9.31488H9.33721H9.35958H9.382H9.40446H9.42697H9.44952H9.47212H9.49475H9.51743H9.54015H9.56291H9.58572H9.60856H9.63145H9.65438H9.67734H9.70035H9.72339H9.74648H9.7696H9.79276H9.81596H9.8392H9.86248H9.88579H9.90914H9.93253H9.95595H9.97941H10.0029H10.0264H10.05H10.0736H10.0972H10.1209H10.1446H10.1683H10.1921H10.2159H10.2397H10.2636H10.2875H10.3114H10.3354H10.3594H10.3834H10.4074H10.4315H10.4556H10.4797H10.5039H10.5281H10.5523H10.5766H10.6008H10.6251H10.6495H10.6738H10.6982H10.7226H10.747H10.7715H10.796H10.8205H10.845H10.8696H10.8942H10.9188H10.9434H10.968H10.9927H11.0174H11.0421H11.0668H11.0916H11.1164H11.1411H11.166H11.1908H11.2156H11.2405H11.2654H11.2903H11.3152H11.3402H11.3651H11.3901H11.4151H11.4401H11.4651H11.4902H11.5152H11.5403H11.5654H11.5905H11.6156H11.6407H11.6659H11.691H11.7162H11.7414H11.7666H11.7918H11.817H11.8422H11.8674H11.8927H11.9179H11.9432H11.9684H11.9937H12.019H12.0443H12.0696H12.0949H12.1203H12.1456H12.1709H12.1963H12.2216H12.247H12.2723H12.2977H12.323H12.3484H12.3738H12.3992H12.4245H12.4499H12.4753H12.5007H12.5261H12.5515H12.5769H12.6023H12.6277H12.6531H12.6785H12.7039H12.7293H12.7547H12.7801H12.8055H12.8308H12.8562H12.8816H12.907H12.9324H12.9578H12.9831H13.0085H13.0339H13.0592H13.0846H13.1099H13.1353H13.1606H13.1859H13.2113H13.2366H13.2619H13.2872H13.3125H13.3377H13.363H13.3883H13.4135H13.4388H13.464H13.4892H13.5145H13.5397H13.5649H13.59H13.6152H13.6404H13.6655H13.6906H13.7157H13.7409H13.7659H13.791H13.8161H13.8411H13.8661H13.8912H13.9162H13.9411H13.9661H13.991H14.016H14.0409H14.0658H14.0907H14.1155H14.1403H14.1652H14.19H14.2147H14.2395H14.2642H14.2889H14.3136H14.3383H14.363H14.3876H14.4122H14.4368H14.4613H14.4859H14.5104H14.5349H14.5593H14.5838H14.6082H14.6326H14.6569H14.6813H14.7056H14.7299H14.7541H14.7784H14.8026H14.8267H14.8509H14.875H14.8991H14.9231H14.9471H14.9711H14.9951H15.019H15.0429H15.0668H15.0907H15.1145H15.1382H15.162H15.1857H15.2094H15.233H15.2566H15.2802H15.3037H15.3272H15.3507H15.3741H15.3975H15.4209H15.4442H15.4675H15.4907H15.5139H15.5371H15.5602H15.5833H15.6064H15.6296H15.6528H15.6761H15.6994H15.7228H15.7463H15.7698H15.7933H15.8169H15.8406H15.8643H15.8881H15.9119H15.9358H15.9597H15.9837H16.0077H16.0318H16.0559H16.0801H16.1043H16.1286H16.1529H16.1773H16.2018H16.2262H16.2507H16.2753H16.2999H16.3246H16.3493H16.374H16.3988H16.4237H16.4486H16.4735H16.4985H16.5235H16.5485H16.5736H16.5988H16.624H16.6492H16.6744H16.6998H16.7251H16.7505H16.7759H16.8014H16.8269H16.8524H16.878H16.9036H16.9292H16.9549H16.9806H17.0064H17.0322H17.058H17.0838H17.1097H17.1356H17.1616H17.1876H17.2136H17.2396H17.2657H17.2918H17.318H17.3442H17.3704H17.3966H17.4228H17.4491H17.4754H17.5018H17.5282H17.5546H17.581H17.6074H17.6339H17.6604H17.6869H17.7135H17.7401H17.7666H17.7933H17.8199H17.8466H17.8733H17.9H17.9267H17.9534H17.9802H18.007H18.0338H18.0606H18.0875H18.1144H18.1412H18.1681H18.1951H18.222H18.2489H18.2759H18.3029H18.3299H18.3569H18.3839H18.4109H18.438H18.4651H18.4921H18.5192H18.5463H18.5734H18.6006H18.6277H18.6549H18.682H18.7092H18.7363H18.7635H18.7907H18.8179H18.8451H18.8723H18.8995H18.9268H18.954H18.9812H19.0085H19.0357H19.063H19.0902H19.1175H19.1447H19.172H19.1993H19.2265H19.2538H19.2811H19.3083H19.3356H19.3629H19.3901H19.4174H19.4447H19.4719H19.4992H19.5264H19.5537H19.5809H19.6082H19.6354H19.6627H19.6899H19.7171H19.7443H19.7716H19.7988H19.826H19.8532H19.8803H19.9075H19.9347H19.9618H19.989H20.0161H20.0433H20.0704H20.0975H20.1246H20.1517H20.1787H20.2058H20.2328H20.2599H20.2869H20.3139H20.3409H20.3678H20.3948H20.4217H20.4487H20.4756H20.5025H20.5293H20.5562H20.583H20.6098H20.6366H20.6634H20.6902H20.7169H20.7436H20.7703H20.797H20.8237H20.8503H20.8769H20.9035H20.93H20.9566H20.9831H21.0096H21.036H21.0625H21.0889H21.1152H21.1416H21.1679H21.1942H21.2205H21.2467H21.273H21.2991H21.3253H21.3514H21.3775H21.4036H21.4296H21.4556H21.4816H21.5075H21.5334H21.5593H21.5851H21.6109H21.6367H21.6624H21.6881H21.7138H21.7394H21.765H21.7906H21.8161H21.8415H21.867H21.8924H21.9177H21.9431H21.9683H21.9936H22.0188H22.0439H22.0691H22.0941H22.1192H22.1442H22.1691H22.194H22.2189H22.2437H22.2685H22.2932H22.3179H22.3425H22.3671H22.3916H22.4161H22.4406H22.465H22.4893H22.5136H22.5379H22.5621H22.5862H22.6103H22.6344H22.6584H22.6823H22.7062H22.7301H22.7539H22.7776H22.8013H22.8249H22.8485H22.872H22.8955H22.9189H22.9423H22.9656H22.9888H23.012H23.0351H23.0582H23.0812H23.1042H23.1271H23.1499H23.1727H23.1954H23.2181H23.2406H23.2632H23.2856H23.3081H23.3304H23.3527H23.3749H23.3971H23.4191H23.4412H23.4631H23.485H23.5068H23.5286H23.5503H23.5719H23.5935H23.615H23.6364H23.6578H23.679H23.7002H23.7214H23.7425H23.7635H23.7844H23.8053H23.8261H23.8468H23.8674H23.888H23.9085H23.9289H23.9492H23.9695H23.9897H24.0098H24.0299H24.0499H24.0697H24.0896H24.1093H24.129H24.1485H24.168H24.1875H24.2068H24.2261H24.2452H24.2643H24.2834H24.3023H24.3212H24.3399H24.3586H24.3772H24.3957H24.4142H24.4325H24.4508H24.469H24.4871H24.5051H24.523H24.5409H24.5586H24.5763H24.5938H24.6113H24.6287H24.646H24.6633H24.6804H24.6974H24.7144H24.7312H24.748H24.7647H24.7812H24.7977H24.8141H24.8304H24.8466H24.8627H24.8787H24.8946H24.9105H24.9262H24.9418H24.9574H24.9728H24.9881H25.0034H25.0185H25.0335H25.0485H25.0633H25.0781H25.0927H25.1072H25.1217H25.136H25.1502H25.1644H25.1784H25.1923H25.2062H25.2199H25.2335H25.247H25.2604H25.2737H25.2869H25.2999H25.3129H25.3258H25.3385H25.3512H25.3637H25.3762H25.3885H25.4007H25.4128H25.4248H25.4367H25.4484H25.4601H25.4716H25.4831H25.4944H25.5056H25.5167H25.5277H25.5385H25.5493H25.5599H25.5704H25.5808H25.5911H25.6013H25.6113H25.6212H25.631H25.6407H25.6503H25.6598H25.6691H25.6783H25.6874H25.6964H25.7052H25.7139H25.7225H25.731H25.7394H25.7476H25.7557H25.7637H25.7716H25.7793H25.7869H25.7944H25.8017H25.809H25.8161H25.823H25.8299H25.8366H25.8432H25.8497H25.856H25.8622H25.8683H25.8742H25.88H25.8857H25.8912H25.8966H25.9019H25.907H25.9121H25.9169H25.9217H25.9263H25.9308H25.9351H25.9393H25.9433H25.9473H25.9511H25.9547H25.9582H25.9616H25.9648H25.9679H25.9709H25.9737H25.9764H25.9789H25.9813H25.9835H25.9857H25.9876H25.9894H25.9911H25.9927H25.994H25.9953H25.9964H25.9973H25.9982H25.9988H25.9993H25.9997H25.9999L26 20V21C26.5523 21 27 20.5523 27 20C27 19.4477 26.5523 19 26 19V20L25.9999 19H25.9997H25.9993H25.9988H25.9982H25.9973H25.9964H25.9953H25.994H25.9927H25.9911H25.9894H25.9876H25.9857H25.9835H25.9813H25.9789H25.9764H25.9737H25.9709H25.9679H25.9648H25.9616H25.9582H25.9547H25.9511H25.9473H25.9433H25.9393H25.9351H25.9308H25.9263H25.9217H25.9169H25.9121H25.907H25.9019H25.8966H25.8912H25.8857H25.88H25.8742H25.8683H25.8622H25.856H25.8497H25.8432H25.8366H25.8299H25.823H25.8161H25.809H25.8017H25.7944H25.7869H25.7793H25.7716H25.7637H25.7557H25.7476H25.7394H25.731H25.7225H25.7139H25.7052H25.6964H25.6874H25.6783H25.6691H25.6598H25.6503H25.6407H25.631H25.6212H25.6113H25.6013H25.5911H25.5808H25.5704H25.5599H25.5493H25.5385H25.5277H25.5167H25.5056H25.4944H25.4831H25.4716H25.4601H25.4484H25.4367H25.4248H25.4128H25.4007H25.3885H25.3762H25.3637H25.3512H25.3385H25.3258H25.3129H25.2999H25.2869H25.2737H25.2604H25.247H25.2335H25.2199H25.2062H25.1923H25.1784H25.1644H25.1502H25.136H25.1217H25.1072H25.0927H25.0781H25.0633H25.0485H25.0335H25.0185H25.0034H24.9881H24.9728H24.9574H24.9418H24.9262H24.9105H24.8946H24.8787H24.8627H24.8466H24.8304H24.8141H24.7977H24.7812H24.7647H24.748H24.7312H24.7144H24.6974H24.6804H24.6633H24.646H24.6287H24.6113H24.5938H24.5763H24.5586H24.5409H24.523H24.5051H24.4871H24.469H24.4508H24.4325H24.4142H24.3957H24.3772H24.3586H24.3399H24.3212H24.3023H24.2834H24.2643H24.2452H24.2261H24.2068H24.1875H24.168H24.1485H24.129H24.1093H24.0896H24.0697H24.0499H24.0299H24.0098H23.9897H23.9695H23.9492H23.9289H23.9085H23.888H23.8674H23.8468H23.8261H23.8053H23.7844H23.7635H23.7425H23.7214H23.7002H23.679H23.6578H23.6364H23.615H23.5935H23.5719H23.5503H23.5286H23.5068H23.485H23.4631H23.4412H23.4191H23.3971H23.3749H23.3527H23.3304H23.3081H23.2856H23.2632H23.2406H23.2181H23.1954H23.1727H23.1499H23.1271H23.1042H23.0812H23.0582H23.0351H23.012H22.9888H22.9656H22.9423H22.9189H22.8955H22.872H22.8485H22.8249H22.8013H22.7776H22.7539H22.7301H22.7062H22.6823H22.6584H22.6344H22.6103H22.5862H22.5621H22.5379H22.5136H22.4893H22.465H22.4406H22.4161H22.3916H22.3671H22.3425H22.3179H22.2932H22.2685H22.2437H22.2189H22.194H22.1691H22.1442H22.1192H22.0941H22.0691H22.0439H22.0188H21.9936H21.9683H21.9431H21.9177H21.8924H21.867H21.8415H21.8161H21.7906H21.765H21.7394H21.7138H21.6881H21.6624H21.6367H21.6109H21.5851H21.5593H21.5334H21.5075H21.4816H21.4556H21.4296H21.4036H21.3775H21.3514H21.3253H21.2991H21.273H21.2467H21.2205H21.1942H21.1679H21.1416H21.1152H21.0889H21.0625H21.036H21.0096H20.9831H20.9566H20.93H20.9035H20.8769H20.8503H20.8237H20.797H20.7703H20.7436H20.7169H20.6902H20.6634H20.6366H20.6098H20.583H20.5562H20.5293H20.5025H20.4756H20.4487H20.4217H20.3948H20.3678H20.3409H20.3139H20.2869H20.2599H20.2328H20.2058H20.1787H20.1517H20.1246H20.0975H20.0704H20.0433H20.0161H19.989H19.9618H19.9347H19.9075H19.8803H19.8532H19.826H19.7988H19.7716H19.7443H19.7171H19.6899H19.6627H19.6354H19.6082H19.5809H19.5537H19.5264H19.4992H19.4719H19.4447H19.4174H19.3901H19.3629H19.3356H19.3083H19.2811H19.2538H19.2265H19.1993H19.172H19.1447H19.1175H19.0902H19.063H19.0357H19.0085H18.9812H18.954H18.9268H18.8995H18.8723H18.8451H18.8179H18.7907H18.7635H18.7363H18.7092H18.682H18.6549H18.6277H18.6006H18.5734H18.5463H18.5192H18.4921H18.4651H18.438H18.4109H18.3839H18.3569H18.3299H18.3029H18.2759H18.2489H18.222H18.1951H18.1681H18.1412H18.1144H18.0875H18.0606H18.0338H18.007H17.9802H17.9534H17.9267H17.9H17.8733H17.8466H17.8199H17.7933H17.7666H17.7401H17.7135H17.6869H17.6604H17.6339H17.6074H17.581H17.5546H17.5282H17.5018H17.4754H17.4491H17.4228H17.3966H17.3704H17.3442H17.318H17.2918H17.2657H17.2396H17.2136H17.1876H17.1616H17.1356H17.1097H17.0838H17.058H17.0322H17.0064H16.9806H16.9549H16.9292H16.9036H16.878H16.8524H16.8269H16.8014H16.7759H16.7505H16.7251H16.6998H16.6744H16.6492H16.624H16.5988H16.5736H16.5485H16.5235H16.4985H16.4735H16.4486H16.4237H16.3988H16.374H16.3493H16.3246H16.2999H16.2753H16.2507H16.2262H16.2018H16.1773H16.1529H16.1286H16.1043H16.0801H16.0559H16.0318H16.0077H15.9837H15.9597H15.9358H15.9119H15.8881H15.8643H15.8406H15.8169H15.7933H15.7698H15.7463H15.7228H15.6994H15.6761H15.6528H15.6296H15.6064H15.5833H15.5602H15.5371H15.5139H15.4907H15.4675H15.4442H15.4209H15.3975H15.3741H15.3507H15.3272H15.3037H15.2802H15.2566H15.233H15.2094H15.1857H15.162H15.1382H15.1145H15.0907H15.0668H15.0429H15.019H14.9951H14.9711H14.9471H14.9231H14.8991H14.875H14.8509H14.8267H14.8026H14.7784H14.7541H14.7299H14.7056H14.6813H14.6569H14.6326H14.6082H14.5838H14.5593H14.5349H14.5104H14.4859H14.4613H14.4368H14.4122H14.3876H14.363H14.3383H14.3136H14.2889H14.2642H14.2395H14.2147H14.19H14.1652H14.1403H14.1155H14.0907H14.0658H14.0409H14.016H13.991H13.9661H13.9411H13.9162H13.8912H13.8661H13.8411H13.8161H13.791H13.7659H13.7409H13.7157H13.6906H13.6655H13.6404H13.6152H13.59H13.5649H13.5397H13.5145H13.4892H13.464H13.4388H13.4135H13.3883H13.363H13.3377H13.3125H13.2872H13.2619H13.2366H13.2113H13.1859H13.1606H13.1353H13.1099H13.0846H13.0592H13.0339H13.0085H12.9831H12.9578H12.9324H12.907H12.8816H12.8562H12.8308H12.8055H12.7801H12.7547H12.7293H12.7039H12.6785H12.6531H12.6277H12.6023H12.5769H12.5515H12.5261H12.5007H12.4753H12.4499H12.4245H12.3992H12.3738H12.3484H12.323H12.2977H12.2723H12.247H12.2216H12.1963H12.1709H12.1456H12.1203H12.0949H12.0696H12.0443H12.019H11.9937H11.9684H11.9432H11.9179H11.8927H11.8674H11.8422H11.817H11.7918H11.7666H11.7414H11.7162H11.691H11.6659H11.6407H11.6156H11.5905H11.5654H11.5403H11.5152H11.4902H11.4651H11.4401H11.4151H11.3901H11.3651H11.3402H11.3152H11.2903H11.2654H11.2405H11.2156H11.1908H11.166H11.1411H11.1164H11.0916H11.0668H11.0421H11.0174H10.9927H10.968H10.9434H10.9188H10.8942H10.8696H10.845H10.8205H10.796H10.7715H10.747H10.7226H10.6982H10.6738H10.6495H10.6251H10.6008H10.5766H10.5523H10.5281H10.5039H10.4797H10.4556H10.4315H10.4074H10.3834H10.3594H10.3354H10.3114H10.2875H10.2636H10.2397H10.2159H10.1921H10.1683H10.1446H10.1209H10.0972H10.0736H10.05H10.0264H10.0029H9.97941H9.95595H9.93253H9.90914H9.88579H9.86248H9.8392H9.81596H9.79276H9.7696H9.74648H9.72339H9.70035H9.67734H9.65438H9.63145H9.60856H9.58572H9.56291H9.54015H9.51743H9.49475H9.47212H9.44952H9.42697H9.40446H9.382H9.35958H9.33721H9.31488H9.29259H9.27035H9.24816H9.22601H9.20391H9.18186H9.15985H9.13789H9.11598H9.09411H9.0723H9.05053H9.02881H9.00714H8.98552H8.96395H8.94243H8.92096H8.89955H8.87818H8.85687H8.8356H8.81439H8.79324H8.77213H8.75108H8.73008H8.70914H8.68825H8.66741H8.64663H8.62591H8.60524H8.58463H8.56407H8.54357H8.52313H8.50274H8.48241H8.46214H8.44193H8.42177H8.40168H8.38164H8.36166H8.34175H8.32189H8.3021H8.28236H8.26269H8.24307H8.22352H8.20404H8.18461H8.16525H8.14595H8.12671H8.10754H8.08843H8.06938H8.05041H8.03149H8.01264H7.99386H7.97514H7.95649H7.93791H7.91939H7.90094H7.88256H7.86425H7.846H7.82783H7.80972H7.79168H7.77371H7.75582H7.73799H7.72023H7.70255H7.68493H7.66739H7.64992H7.63252H7.61519H7.59794H7.58076H7.56365H7.54662H7.52967H7.51278H7.49597H7.47924H7.46259H7.446H7.4295H7.41307H7.39672H7.38045H7.36425H7.34813H7.33209H7.31613H7.30025H7.28445H7.26872H7.25308H7.23751H7.22203H7.20663H7.19131H7.17607H7.16091H7.14584H7.13084H7.11593H7.10111H7.08636H7.07171H7.05713H7.04264H7.02823H7.01391H6.99968H6.98553H6.97147H6.95749H6.9436H6.9298H6.91608H6.90245H6.88892H6.87546H6.8621H6.84883H6.83565H6.82255H6.80955H6.79664H6.78381H6.77108H6.75844H6.74589H6.73344H6.72107H6.7088H6.69663H6.68454H6.67255H6.66065H6.64885H6.63714H6.62553H6.61401H6.60259H6.59127H6.58004H6.5689H6.55787H6.54693H6.53609H6.52535H6.5147H6.50416H6.49371H6.48336H6.47311H6.46297H6.45292H6.44297H6.43313H6.42338H6.41374H6.4042H6.39476H6.38542H6.37619H6.36706H6.35803H6.34911H6.34029H6.33158H6.32297H6.31446H6.30607H6.29777H6.28959H6.28151H6.27353H6.26567H6.25791H6.25026H6.24272H6.23528H6.22796H6.22074H6.21364H6.20664H6.19976H6.19298H6.18631H6.17976H6.17332H6.16699H6.16077H6.15466H6.14867H6.14279H6.13702H6.13137H6.12583H6.12041H6.1151H6.1099H6.10482H6.09986H6.09501H6.09028H6.08567H6.08117H6.07679H6.07253H6.06839H6.06436H6.06045H6.05667H6.053H6.04945H6.04602H6.04271H6.03952H6.03645H6.03351H6.03069H6.02798H6.0254H6.02295H6.02061H6.0184H6.01631H6.01435H6.01251H6.0108H6.00921H6.00774H6.00641H6.00519H6.00411H6.00315H6.00231H6.00161H6.00103H6.00058H6.00026H6.00006L6 20V19Z" fill="#404040"/>
</svg>

<svg width="32" height="32" fill="none" xmlns="http://www.w3.org/2000/svg"><path fill-rule="evenodd" clip-rule="evenodd" d="M26 13a1 1 0 100-2v1-1H6L6 12v-1a1 1 0 100 2v-1 1H26L26 12v1zM6 19a1 1 0 100 2v-1 1H26L26 20v1a1 1 0 100-2v1-1H6L6 20v-1z" fill="#404040"/></svg>
